X: 23419
T: Les Frères Pigeon
R: reel
M: 4/4
K: Bminor
|:Bcdc B2F2|Bcdc B2F2|B3c d3B|c2f2 c2f2|
Bcdc B2F2|Bcdc B2F2|f3g f2e2|1 d2c2 B2F2:|2 d2c2 B2^A2||
|:A3a a2f2|d4 c2B2|Affe f2d2|A3A ABAF|G3e e2f2|
g3e cAce|1 agfe dcBA|f2d2 c2B2:|2 agfe d2c2|dfec d2F2||

